symbols/web/3p/materialsymbolssharp/3p_wght100grad200fill1_20px.svg

<svg xmlns="http://www.w3.org/2000/svg" height="20" width="20"><path d="M7.208 10.688h5.584V10.5q0-.646-.802-1.083-.802-.438-1.99-.438t-1.99.438q-.802.437-.802 1.083Zm2.813-3q.562 0 .927-.355.364-.354.364-.937 0-.584-.364-.938-.365-.354-.927-.354-.583 0-.938.354-.354.354-.354.938 0 .583.354.937.355.355.938.355Zm-7.938 9.437V1.833h15.834V14.25H4.958Z"/></svg>

<svg xmlns="http://www.w3.org/2000/svg" height="20" width="20"><path d="M7.208 10.688H12.792V10.5Q12.792 9.854 11.99 9.417Q11.188 8.979 10 8.979Q8.812 8.979 8.01 9.417Q7.208 9.854 7.208 10.5ZM10.021 7.688Q10.583 7.688 10.948 7.333Q11.312 6.979 11.312 6.396Q11.312 5.812 10.948 5.458Q10.583 5.104 10.021 5.104Q9.438 5.104 9.083 5.458Q8.729 5.812 8.729 6.396Q8.729 6.979 9.083 7.333Q9.438 7.688 10.021 7.688ZM2.083 17.125V1.833H17.917V14.25H4.958Z"/></svg>
